X: 18
M:4/4
L:1/8
K:D
(3ABc|dAFA BGEG|FAdf dcBA|Bdgf edcB|ceAA A3 G|
|:A2|dgba gfed|ceag fedc|Bdgf edcd|B2 BB B3 c|
d2 df dAGF|egfa gedc|(3def af bgec|d2 de d2:||

